static/img/icons/token.svg

<?xml version="1.0" encoding="UTF-8"?>
<svg width="23px" height="24px" viewBox="0 0 23 24" version="1.1" xmlns="http://www.w3.org/2000/svg" xmlns:xlink="http://www.w3.org/1999/xlink">
    <!-- Generator: Sketch 49.1 (51147) - http://www.bohemiancoding.com/sketch -->
    <title>Page 1</title>
    <desc>Created with Sketch.</desc>
    <defs>
        <polygon id="path-1" points="0 0.00276923077 19.779632 0.00276923077 19.779632 20.7027692 0 20.7027692"></polygon>
        <polygon id="path-3" points="0 23.9973231 22.40752 23.9973231 22.40752 0.923169231 0 0.923169231"></polygon>
    </defs>
    <g id="Page-1" stroke="none" stroke-width="1" fill="none" fill-rule="evenodd">
        <g id="Landing-page" transform="translate(-380.000000, -2416.000000)">
            <g id="membrana-platform-components" transform="translate(380.000000, 2014.000000)">
                <g id="for-investors">
                    <g id="text" transform="translate(0.000000, 153.000000)">
                        <g id="Page-1" transform="translate(0.000000, 249.000000)">
                            <g id="Group-3" transform="translate(0.000000, 0.920400)">
                                <mask id="mask-2" fill="white">
                                    <use xlink:href="#path-1"></use>
                                </mask>
                                <g id="Clip-2"></g>
                                <path d="M14.583472,1.57846154 L18.209192,5.21630769 L14.583472,5.21630769 L14.583472,1.57846154 Z M1.839632,19.7796923 C1.332712,19.7796923 0.919632,19.3661538 0.919632,18.8566154 L0.919632,1.84892308 C0.919632,1.33938462 1.332712,0.925846154 1.839632,0.925846154 L13.663472,0.925846154 L13.663472,6.13938462 L18.859632,6.13938462 L18.859632,11.5873846 C19.085032,11.4710769 19.331592,11.3889231 19.598392,11.3889231 C19.660032,11.3889231 19.719832,11.4 19.779632,11.4064615 L19.779632,5.48676923 L19.740072,5.44707692 L14.600032,0.289846154 L14.313912,0.00276923077 L1.839632,0.00276923077 C0.824872,0.00276923077 -0.000368,0.830769231 -0.000368,1.84892308 L-0.000368,18.8566154 C-0.000368,19.8738462 0.824872,20.7027692 1.839632,20.7027692 L10.813312,20.7027692 C10.773752,20.5606154 10.747072,20.4156923 10.747072,20.2652308 C10.747072,20.0972308 10.778352,19.9347692 10.827112,19.7796923 L1.839632,19.7796923 Z" id="Fill-1" fill="#6E7195" mask="url(#mask-2)"></path>
                            </g>
                            <mask id="mask-4" fill="white">
                                <use xlink:href="#path-3"></use>
                            </mask>
                            <g id="Clip-5"></g>
                            <polygon id="Fill-4" fill="#6E7195" mask="url(#mask-4)" points="3.62204 10.2324 16.15796 10.2324 16.15796 9.30932308 3.62204 9.30932308"></polygon>
                            <path d="M14.981004,11.3636308 L3.621764,11.3636308 L3.621764,12.2867077 L14.303884,12.2867077 C14.410604,11.8990154 14.655324,11.5740923 14.981004,11.3636308" id="Fill-6" fill="#6E7195" mask="url(#mask-4)"></path>
                            <path d="M3.62204,13.4188615 L3.62204,14.3419385 L10.764,14.3419385 C10.80632,14.0050154 10.94984,13.6791692 11.201,13.4188615 L3.62204,13.4188615 Z" id="Fill-7" fill="#6E7195" mask="url(#mask-4)"></path>
                            <path d="M10.9825,15.8131385 L11.28058,15.7789846 L11.09382,15.5436 C11.07634,15.5214462 11.06438,15.4965231 11.04874,15.4734462 L3.6225,15.4734462 L3.6225,16.3965231 L9.92634,16.3965231 C10.18302,16.0817538 10.55286,15.8629846 10.9825,15.8131385" id="Fill-8" fill="#6E7195" mask="url(#mask-4)"></path>
                            <path d="M3.62204,17.5276615 L3.62204,18.4507385 L9.57168,18.4507385 C9.568,18.4027385 9.5588,18.3565846 9.5588,18.3085846 L9.5588,17.5276615 L3.62204,17.5276615 Z" id="Fill-9" fill="#6E7195" mask="url(#mask-4)"></path>
                            <path d="M21.487888,18.3083077 C21.487888,18.3452308 21.457528,18.3756923 21.420728,18.3756923 L20.270728,18.3756923 C20.092248,18.3756923 19.927568,18.4329231 19.780368,18.5206154 C19.589928,18.6350769 19.433528,18.8086154 19.347048,19.0329231 C19.324968,19.0910769 19.301968,19.1464615 19.278048,19.2009231 C19.104168,19.5913846 19.177768,20.0307692 19.467568,20.3215385 L19.636848,20.4904615 L20.279928,21.1356923 C20.306608,21.1633846 20.306608,21.2067692 20.280848,21.2326154 L19.652488,21.8630769 C19.630408,21.8843077 19.580728,21.8843077 19.557728,21.8630769 L18.988248,21.2907692 L18.745368,21.0470769 C18.455568,20.7563077 18.017648,20.6824615 17.629408,20.856 C17.574208,20.88 17.519008,20.904 17.460128,20.9261538 C17.139968,21.0498462 16.918248,21.312 16.841888,21.6230769 C16.823488,21.6978462 16.806008,21.7735385 16.806008,21.8529231 L16.806008,23.0067692 C16.806008,23.0436923 16.775648,23.0741538 16.737928,23.0741538 L15.851048,23.0741538 C15.813328,23.0741538 15.782968,23.0436923 15.782968,23.0067692 L15.782968,21.8529231 C15.782968,21.7735385 15.765488,21.6978462 15.747088,21.6230769 C15.670728,21.312 15.449008,21.0498462 15.126088,20.9252308 C15.069968,20.9049231 15.014768,20.88 14.961408,20.8569231 C14.821568,20.7932308 14.675288,20.7627692 14.531768,20.7627692 C14.276928,20.7627692 14.029448,20.8606154 13.843608,21.0470769 L13.269528,21.6230769 L13.031248,21.8630769 C13.004568,21.8898462 12.961328,21.8898462 12.935568,21.8630769 L12.696368,21.6230769 L12.307208,21.2326154 C12.285128,21.2104615 12.286048,21.1596923 12.308128,21.1366154 L12.744208,20.7 L13.121408,20.3215385 C13.410288,20.0298462 13.484808,19.5904615 13.310928,19.2 C13.286088,19.1446154 13.263088,19.0901538 13.241008,19.0329231 C13.135208,18.7541538 12.923608,18.5529231 12.669688,18.4504615 C12.558368,18.4061538 12.441528,18.3756923 12.318248,18.3756923 L11.168248,18.3756923 C11.130528,18.3756923 11.100168,18.3452308 11.100168,18.3083077 L11.100168,17.5273846 L11.100168,17.4175385 C11.100168,17.3806154 11.130528,17.3501538 11.168248,17.3501538 L12.318248,17.3501538 C12.727648,17.3501538 13.090128,17.0926154 13.241928,16.6929231 C13.263088,16.6356923 13.286088,16.5812308 13.310928,16.5258462 C13.329328,16.4833846 13.334848,16.44 13.347728,16.3966154 C13.447088,16.0698462 13.383608,15.7292308 13.170168,15.4735385 C13.152688,15.4513846 13.141648,15.4255385 13.121408,15.4043077 L12.308128,14.5892308 L12.308128,14.4932308 L12.459008,14.3418462 L12.935568,13.8636923 C12.962248,13.8369231 13.005488,13.8387692 13.031248,13.8636923 L13.507808,14.3418462 L13.843608,14.6787692 C14.133408,14.9695385 14.571328,15.0443077 14.960488,14.8698462 C15.014768,14.8458462 15.069968,14.8218462 15.128848,14.7996923 C15.361608,14.7101538 15.537328,14.5430769 15.650488,14.3418462 C15.730528,14.1996923 15.782968,14.0427692 15.782968,13.8729231 L15.782968,13.4187692 L15.782968,12.7190769 C15.782968,12.6821538 15.813328,12.6516923 15.851048,12.6516923 L16.737928,12.6516923 C16.775648,12.6516923 16.806008,12.6821538 16.806008,12.7190769 L16.806008,13.8729231 C16.806008,14.2836923 17.062688,14.6464615 17.462888,14.8006154 C17.519008,14.8227692 17.574208,14.8458462 17.627568,14.8689231 C18.017648,15.0461538 18.455568,14.9704615 18.745368,14.6787692 L18.860368,14.5633846 L19.557728,13.8636923 C19.580728,13.8415385 19.630408,13.8415385 19.652488,13.8636923 L19.780368,13.9910769 L20.280848,14.4932308 C20.302928,14.5163077 20.302928,14.5661538 20.280848,14.5892308 L19.780368,15.0913846 L19.467568,15.4043077 C19.177768,15.6950769 19.104168,16.1353846 19.277128,16.5230769 C19.301968,16.5793846 19.324968,16.6356923 19.347048,16.6929231 C19.433528,16.9181538 19.589928,17.0907692 19.780368,17.2052308 C19.926648,17.2929231 20.092248,17.3501538 20.270728,17.3501538 L21.420728,17.3501538 C21.457528,17.3501538 21.487888,17.3806154 21.487888,17.4175385 L21.487888,18.3083077 Z M21.420728,16.4270769 L20.206328,16.3633846 C20.178728,16.2904615 20.149288,16.2203077 20.118008,16.1501538 L20.118928,16.0578462 L20.118008,16.0578462 L20.931288,15.2418462 C21.118048,15.0553846 21.220168,14.8061538 21.220168,14.5412308 C21.220168,14.2763077 21.118048,14.0270769 20.931288,13.8406154 L20.302928,13.2110769 C20.160328,13.0670769 19.973568,12.9969231 19.780368,12.9636923 C19.469408,12.9101538 19.137288,12.9812308 18.907288,13.2110769 L18.860368,13.2581538 L18.094928,14.0261538 L18.002008,14.0261538 C17.931168,13.9947692 17.860328,13.9643077 17.726008,13.8729231 L17.726008,12.7190769 C17.726008,12.1735385 17.282568,11.7286154 16.737928,11.7286154 L16.158328,11.7286154 L15.851048,11.7286154 C15.462808,11.7286154 15.134368,11.9593846 14.972448,12.2870769 C14.908048,12.4190769 14.862968,12.5621538 14.862968,12.7190769 L14.828008,13.4187692 L14.801328,13.9375385 C14.728648,13.9652308 14.656888,13.9947692 14.494048,14.0261538 L13.888688,13.4187692 L13.681688,13.2110769 C13.297128,12.8252308 12.670608,12.8252308 12.285128,13.2110769 L12.078128,13.4187692 L11.657688,13.8406154 C11.520608,13.9790769 11.446088,14.1553846 11.407448,14.3418462 C11.393648,14.4083077 11.367888,14.472 11.367888,14.5412308 C11.367888,14.8061538 11.470928,15.0553846 11.657688,15.2418462 L11.865608,15.4735385 L12.471888,16.1473846 C12.442448,16.212 12.410248,16.2830769 12.336648,16.3966154 C12.328368,16.4076923 12.326528,16.4141538 12.318248,16.4270769 L11.168248,16.4270769 C10.623608,16.4270769 10.180168,16.8710769 10.180168,17.4175385 L10.180168,17.5273846 L10.180168,18.3083077 C10.180168,18.3590769 10.202248,18.4024615 10.209608,18.4504615 C10.281368,18.9267692 10.674208,19.2987692 11.168248,19.2987692 L12.381728,19.3633846 C12.410248,19.4363077 12.439688,19.5073846 12.470968,19.6689231 L11.656768,20.484 C11.595128,20.5476923 11.556488,20.6252308 11.513248,20.7 C11.428608,20.8486154 11.367888,21.0092308 11.367888,21.1846154 C11.367888,21.3415385 11.413888,21.4864615 11.482888,21.6230769 C11.528888,21.7163077 11.581328,21.8086154 11.657688,21.8852308 L12.286048,22.5156923 C12.670608,22.9015385 13.297128,22.9006154 13.681688,22.5156923 L14.586048,21.6996923 C14.656888,21.7310769 14.728648,21.7606154 14.862968,21.8529231 L14.862968,23.0067692 C14.862968,23.5532308 15.306408,23.9972308 15.851048,23.9972308 L16.737928,23.9972308 C17.282568,23.9972308 17.726008,23.5532308 17.726008,23.0067692 L17.787648,21.7892308 C17.860328,21.7615385 17.931168,21.7310769 18.002008,21.6996923 L18.094008,21.7006154 L18.094928,21.6996923 L18.907288,22.5156923 C19.280808,22.8886154 19.930328,22.8886154 20.302928,22.5156923 L20.931288,21.8852308 C21.315848,21.5003077 21.315848,20.8716923 20.931288,20.484 L20.118008,19.6689231 L20.118008,19.5756923 C20.149288,19.5055385 20.178728,19.4353846 20.270728,19.2987692 L21.420728,19.2987692 C21.965368,19.2987692 22.407888,18.8547692 22.407888,18.3083077 L22.407888,17.4175385 C22.407888,16.8710769 21.965368,16.4270769 21.420728,16.4270769 Z" id="Fill-10" fill="#6E7195" mask="url(#mask-4)"></path>
                            <polygon id="Fill-11" fill="#6E7195" mask="url(#mask-4)" points="16.15842 17.9621538 15.74626 18.3756923 15.08938 17.7166154 14.43894 18.3692308 14.5199 18.4504615 15.74626 19.6809231 18.1493 17.2698462 17.49886 16.6172308"></polygon>
                        </g>
                    </g>
                </g>
            </g>
        </g>
    </g>
</svg>

<svg width="23" height="24" xmlns="http://www.w3.org/2000/svg" xmlns:xlink="http://www.w3.org/1999/xlink"><defs><path id="a" d="M0 .003h19.78v20.7H0z"/><path id="c" d="M0 23.997h22.408V.923H0z"/></defs><g fill="none" fill-rule="evenodd"><g transform="translate(0 .92)"><mask id="b" fill="#fff"><use xlink:href="#a"/></mask><path d="M14.583 1.578l3.626 3.638h-3.626V1.578zM1.84 19.78a.922.922 0 0 1-.92-.923V1.849c0-.51.413-.923.92-.923h11.823v5.213h5.197v5.448a1.61 1.61 0 0 1 .738-.198c.062 0 .122.011.182.017v-5.92l-.04-.039L14.6.29l-.286-.287H1.84C.825.003 0 .83 0 1.849v17.008c0 1.017.825 1.846 1.84 1.846h8.973a1.625 1.625 0 0 1-.066-.438c0-.168.031-.33.08-.485H1.84z" fill="#6E7195" mask="url(#b)"/></g><mask id="d" fill="#fff"><use xlink:href="#c"/></mask><path fill="#6E7195" mask="url(#d)" d="M3.622 10.232h12.536V9.31H3.622zm11.359 1.132H3.621v.923h10.683c.107-.388.351-.713.677-.923M3.622 13.419v.923h7.142a1.61 1.61 0 0 1 .437-.923H3.622zm7.36 2.394l.299-.034-.187-.235c-.018-.023-.03-.047-.045-.07H3.623v.923h6.303a1.597 1.597 0 0 1 1.056-.584m-7.36 1.715v.923h5.95c-.004-.048-.013-.094-.013-.142v-.781H3.622z"/><path d="M21.488 18.308c0 .037-.03.068-.067.068h-1.15a.955.955 0 0 0-.49.145 1.026 1.026 0 0 0-.434.512 3.541 3.541 0 0 1-.069.168c-.174.39-.1.83.19 1.12l.169.17.643.645a.07.07 0 0 1 0 .097l-.628.63c-.022.021-.071.021-.094 0l-.57-.572-.243-.244a.99.99 0 0 0-1.116-.191c-.055.024-.11.048-.169.07a1 1 0 0 0-.618.697.958.958 0 0 0-.036.23v1.154c0 .037-.03.067-.068.067h-.887a.068.068 0 0 1-.068-.067v-1.154a.958.958 0 0 0-.036-.23 1.001 1.001 0 0 0-.62-.698c-.057-.02-.112-.045-.166-.068a1.035 1.035 0 0 0-.43-.094.967.967 0 0 0-.687.284l-.574.576-.239.24a.067.067 0 0 1-.095 0l-.24-.24-.389-.39c-.022-.023-.021-.073.001-.096l.436-.437.377-.378a1 1 0 0 0 .19-1.122 3.356 3.356 0 0 1-.07-.167 1.01 1.01 0 0 0-.571-.583.948.948 0 0 0-.352-.074h-1.15a.068.068 0 0 1-.068-.068v-.89c0-.037.03-.068.068-.068h1.15a.99.99 0 0 0 .924-.657 2.44 2.44 0 0 1 .069-.167c.018-.043.024-.086.037-.13a.979.979 0 0 0-.178-.922c-.017-.023-.028-.048-.049-.07l-.813-.815v-.096l.151-.151.477-.478a.069.069 0 0 1 .095 0l.477.478.336.337a.99.99 0 0 0 1.116.19c.055-.023.11-.047.169-.07a1.01 1.01 0 0 0 .521-.457c.08-.142.133-.3.133-.47V12.72c0-.037.03-.067.068-.067h.887c.038 0 .068.03.068.067v1.154c0 .41.257.773.657.928l.165.068a.984.984 0 0 0 1.117-.19l.115-.116.698-.7c.023-.021.072-.021.094 0l.128.128.5.502c.023.023.023.073 0 .096l-.5.502-.312.313a.997.997 0 0 0-.19 1.12c.024.055.047.112.069.169.087.225.243.398.433.512a.952.952 0 0 0 .49.145h1.15c.038 0 .068.03.068.068v.89zm-.067-1.88l-1.215-.065a3.982 3.982 0 0 0-.088-.213v-.092l.813-.816a.983.983 0 0 0 .29-.7.983.983 0 0 0-.29-.701l-.628-.63a.938.938 0 0 0-.523-.247c-.31-.054-.643.017-.873.247l-.047.047-.765.768h-.093c-.07-.031-.142-.062-.276-.153v-1.154a.99.99 0 0 0-.988-.99h-.887a.982.982 0 0 0-.879.558.978.978 0 0 0-.109.432l-.035.7-.027.519c-.072.027-.144.057-.307.088l-.605-.607-.207-.208a.987.987 0 0 0-1.397 0l-.207.208-.42.422a.976.976 0 0 0-.25.5c-.014.067-.04.131-.04.2a.98.98 0 0 0 .29.7l.208.233.606.673c-.03.065-.062.136-.135.25-.009.01-.01.017-.019.03h-1.15a.99.99 0 0 0-.988.99v.891c0 .051.022.094.03.142a.977.977 0 0 0 .958.849l1.214.064c.028.073.058.144.089.306l-.814.815c-.062.064-.1.141-.144.216a.978.978 0 0 0-.145.485c0 .157.046.301.115.438a.966.966 0 0 0 .175.262l.628.63a.987.987 0 0 0 1.396 0l.904-.815c.07.031.143.06.277.153v1.154c0 .546.443.99.988.99h.887a.99.99 0 0 0 .988-.99l.062-1.218c.072-.027.143-.058.214-.09l.092.002V21.7l.813.816a1.01 1.01 0 0 0 1.396 0l.628-.63a.995.995 0 0 0 0-1.402l-.813-.815v-.093c.031-.07.06-.14.153-.277h1.15a.99.99 0 0 0 .987-.99v-.891a.99.99 0 0 0-.987-.99z" fill="#6E7195" mask="url(#d)"/><path fill="#6E7195" mask="url(#d)" d="M16.158 17.962l-.412.414-.657-.66-.65.653.08.081 1.227 1.23 2.403-2.41-.65-.653z"/></g></svg>
